public/images/icons/icon_1.svg

<svg width="60" height="60" fill="none" xmlns="http://www.w3.org/2000/svg"><circle cx="30" cy="30" r="30" fill="url(#paint0_radial)"/><path d="M33.6853 26.5222c-.0412-.0713-.0629-.1522-.0629-.2346s.0217-.1633.0629-.2346l4.1525-7.3948 1.6543-2.9535c.7468-1.3332-.2168-2.9774-1.7449-2.9774h-14.204c-1.0952 0-2.1034.5968-2.6302 1.5571L17 21.4171h7.0054c.0838-.0001.1662.0222.2385.0646.0723.0425.1319.1035.1726.1768.0407.0733.061.1561.0589.2399-.0022.0839-.0268.1656-.0712.2366L17.061 33.7716h11.7304c.0703-.0015.1401.013.2042.0422.064.0292.1207.0724.1657.1265.0451.0541.0774.1176.0946.1858.0172.0683.0188.1396.0047.2085l-3.6458 18.1727L42.2542 29.939c.9736-1.3205.0308-3.1869-1.6097-3.1869h-6.5651c-.0798-.0016-.1579-.0236-.2269-.0638-.069-.0402-.1265-.0974-.1672-.1661z" fill="url(#paint1_linear)"/><defs><radialGradient id="paint0_radial" cx="0" cy="0" r="1" gradientUnits="userSpaceOnUse" gradientTransform="matrix(21.49994 52.99998 -76.8805 31.1873 20.5 3)"><stop stop-color="#FFA41D"/><stop offset="1" stop-color="#FF3D00"/></radialGradient><linearGradient id="paint1_linear" x1="30.8019" y1="12.7273" x2="30.8019" y2="52.5073" gradientUnits="userSpaceOnUse"><stop stop-color="#fff"/><stop offset="1" stop-color="#fff" stop-opacity=".7"/></linearGradient></defs></svg>

<svg width="60" height="60" viewBox="0 0 60 60" fill="none" xmlns="http://www.w3.org/2000/svg">
<circle cx="30" cy="30" r="30" fill="url(#paint0_radial)"/>
<path d="M33.6853 26.5222C33.6441 26.4509 33.6224 26.37 33.6224 26.2876C33.6224 26.2052 33.6441 26.1243 33.6853 26.053L37.8378 18.6582L39.4921 15.7047C40.2389 14.3715 39.2753 12.7273 37.7472 12.7273H23.5432C22.448 12.7273 21.4398 13.3241 20.913 14.2844L17 21.4171H24.0054C24.0892 21.417 24.1716 21.4393 24.2439 21.4817C24.3162 21.5242 24.3758 21.5852 24.4165 21.6585C24.4572 21.7318 24.4775 21.8146 24.4754 21.8984C24.4732 21.9823 24.4486 22.064 24.4042 22.135L17.061 33.7716H28.7914C28.8617 33.7701 28.9315 33.7846 28.9956 33.8138C29.0596 33.843 29.1163 33.8862 29.1613 33.9403C29.2064 33.9944 29.2387 34.0579 29.2559 34.1261C29.2731 34.1944 29.2747 34.2657 29.2606 34.3346L25.6148 52.5073L42.2542 29.939C43.2278 28.6185 42.285 26.7521 40.6445 26.7521H34.0794C33.9996 26.7505 33.9215 26.7285 33.8525 26.6883C33.7835 26.6481 33.726 26.5909 33.6853 26.5222Z" fill="url(#paint1_linear)"/>
<defs>
<radialGradient id="paint0_radial" cx="0" cy="0" r="1" gradientUnits="userSpaceOnUse" gradientTransform="translate(20.5 3) rotate(67.9196) scale(57.1948 82.9654)">
<stop stop-color="#FFA41D"/>
<stop offset="1" stop-color="#FF3D00"/>
</radialGradient>
<linearGradient id="paint1_linear" x1="30.8019" y1="12.7273" x2="30.8019" y2="52.5073" gradientUnits="userSpaceOnUse">
<stop stop-color="white"/>
<stop offset="1" stop-color="white" stop-opacity="0.7"/>
</linearGradient>
</defs>
</svg>
